!!!COM: Music21
!!!OTL: Foliada
!!!OMV: pezas_foliadas_foliada-19_foliada-partitura.musicxml
**kern
*I"Bagpipes
*I'Bag
*clefG^2
*k[]
*M3/4
=1
!LO:TX:a:t=Prestissimo
*MM220
!LO:TX:a:t=[quarter]=220
4r
8eeL
8ddJ
8eeL
8ffJ
=||
4gg
4.gg
8gg
=
4gg
4.aaT
8ee
=
2gg
[4ff
=
4ff]
8ffL
8eeJ
8ffL
8ggJ
=
4aa
4.aa
8aa
=
4aa
4.bb
8ff
=
4.aa
8gg
[4ee
!!linebreak:original
=
4ee]
8eeL
8ddJ
8eeL
8ffJ
=
4gg
4.gg
8gg
=
4gg
4.aa
8ee
=
2gg
[4ff
=
4ff]
8ffL
8eeJ
8ffL
8ggJ
=
4aa
4.aa
8aa
=
4aa
4.bb
8ff
=
4.aa
8gg
[4ee
=
4ee]
8eeL
8ddJ
8eeL
8ffJ
!!linebreak:original
=||
4gg
4.gg
8gg
=
4gg
4.aaT
8ee
=
2gg
[4ff
=
4ff]
8ffL
8eeJ
8ffL
8ggJ
=
4aa
4.aa
8aa
=
4aa
4.bb
8ff
=
4.aa
8gg
[4ee
!!linebreak:original
=
4ee]
8eeL
8ddJ
8eeL
8ffJ
=
4gg
4.gg
8gg
=
4gg
4.aa
8ee
=
2gg
[4ff
=
4ff]
8ffL
8eeJ
8ffL
8ggJ
=
4aa
4.aa
8aa
=
4aa
4.bb
8ff
!!linebreak:original
=
4.aa
8gg
[4ee
=
4ee]
4r
8eeL
8ffJ
=||
8ggL
8aaJ
8ggL
8ffJ
[4gg
=
4gg]
4ee
4aa
=
8ggL
8aaJ
8ggL
8eeJ
[4ff
=
4ff]
4dd
4ee
=
8ffL
8ggJ
8ffL
8eeJ
[4ff
=
4ff]
4bb
4aa
=
8aaL
8ggJ
8ggL
8ffJ
[4ee
!!linebreak:original
=
4ee]
4ee
4ff
=||
8ggL
8aaJ
8ggL
8ffJ
[4gg
=
4gg]
4ee
4aa
=
8ggL
8aaJ
8ggL
8eeJ
[4ff
=
4ff]
4dd
4ee
=
8ffL
8ggJ
8ffL
8eeJ
[4ff
=
4ff]
4bb
4aa
=
8aaL
8ggJ
8ggL
8ffJ
[4ee
=
4.ee]
[4.ee
!!linebreak:original
=
4ee]
4ee
4ff
=||
4gg
4aa
[4bb
=
4bb]
2ccc
=
2aa
[4bb
=
4bb]
4ccc
4bb
=
4ff
4gg
[4aa
=
4aa]
2bb
=
2gg
[4ee
!!linebreak:original
=
4ee]
4ee
4ff
=||
4gg
4aa
[4bb
=
4bb]
2ccc
=
2aa
[4bb
=
4bb]
4ccc
4bb
=
4ff
4gg
[4aa
=
4aa]
2bb
=
2gg
[4ee
=
4ee]
4ee
4ff
=||
4gg
4aa
[4bb-X
=
4bb-]
2gg
=
[2.aa
!!linebreak:original
=
4aa]
4aa
4aa
=
4aa
4bb
[4ccc
=
4ccc]
[2bb
=
2.bb_
=
4bb]
4ccc
4bb
=
4ff
4gg
[4aa
=
4aa]
2bb
!!linebreak:original
=
4ee
4ff
[4gg
=
4gg]
2aa
=
4dd
4ee
[4ff
=
4ff]
2gg
=
[2.ee
=
4ee]
4ee
4ff
=||
4gg
4aa
[4bb-X
=
4bb-]
2gg
=
[2.aa
=
4aa]
4aa
4aa
=
4aa
4bb
[4ccc
=
4ccc]
[2bb
!!pagebreak:original
=
2.bb_
=
4bb]
4ccc
4bb
=
4ff
4gg
[4aa
=
4aa]
2bb
!!linebreak:original
=
4ee
4ff
[4gg
=
4gg]
2aa
=
4dd
4ee
[4ff
=
4ff]
2gg
=
[2.ee
=
4ee]
8eeL
8ddJ
8eeL
8ffJ
==
*-
